assets/Top arrow/Flat/top_arrow_flat.svg

<svg width="32" height="32" viewBox="0 0 32 32" fill="none" xmlns="http://www.w3.org/2000/svg">
<path d="M7.71503 10.4394L15.285 2.30905C15.665 1.89863 16.325 1.89863 16.715 2.29928L24.285 10.4296C24.845 11.0257 24.405 11.9931 23.575 11.9931H19.935C19.585 11.9931 19.295 12.2765 19.295 12.6185V17.8128C19.295 18.4578 18.765 18.9757 18.105 18.9757H13.885C13.235 18.9757 12.695 18.4578 12.705 17.8226L12.705 12.6283C12.705 12.2863 12.415 12.0029 12.065 12.0029H8.42503C7.59503 12.0029 7.15503 11.0452 7.71503 10.4394Z" fill="#321B41"/>
<path d="M12.44 20.8175H6C5.45 20.8175 5 21.2675 5 21.8175C5 22.3675 5.45 22.8175 6 22.8175H8.22V28.9875C8.22 29.5375 8.67 29.9875 9.22 29.9875C9.77 29.9875 10.22 29.5375 10.22 28.9875V22.8175H12.44C12.99 22.8175 13.44 22.3675 13.44 21.8175C13.44 21.2575 12.99 20.8175 12.44 20.8175Z" fill="#321B41"/>
<path d="M21.83 20.8275H24.6C26.11 20.8275 27.34 22.0575 27.34 23.5675C27.34 25.0775 26.11 26.3075 24.6 26.3075H22.83V28.9975C22.83 29.5475 22.38 29.9975 21.83 29.9975C21.28 29.9975 20.83 29.5475 20.83 28.9975V21.8275C20.83 21.2775 21.28 20.8275 21.83 20.8275ZM22.83 24.3075H24.6C25.01 24.3075 25.34 23.9775 25.34 23.5675C25.34 23.1575 25.01 22.8275 24.6 22.8275H22.83V24.3075Z" fill="#321B41"/>
<path d="M13.4399 26.8575C13.4399 28.5875 14.8499 29.9975 16.5899 29.9975C18.3199 29.9975 19.7399 28.5875 19.7399 26.8575V23.9775C19.7399 22.2475 18.3299 20.8375 16.5899 20.8375C14.8499 20.8375 13.4399 22.2475 13.4399 23.9775V26.8575ZM15.4399 23.9775C15.4399 23.3375 15.9599 22.8275 16.5899 22.8275C17.2199 22.8275 17.7399 23.3375 17.7399 23.9775V26.8575C17.7399 27.4975 17.2199 28.0075 16.5899 28.0075C15.9599 28.0075 15.4399 27.4875 15.4399 26.8575V23.9775Z" fill="#321B41"/>
</svg>

<svg xmlns="http://www.w3.org/2000/svg" width="32" height="32" fill="none"><path fill="#321B41" d="m7.715 10.44 7.57-8.13a.992.992 0 0 1 1.43-.01l7.57 8.13c.56.596.12 1.563-.71 1.563h-3.64c-.35 0-.64.284-.64.625v5.195c0 .645-.53 1.163-1.19 1.163h-4.22c-.65 0-1.19-.518-1.18-1.153v-5.195a.637.637 0 0 0-.64-.625h-3.64c-.83 0-1.27-.958-.71-1.564ZM12.44 20.817H6c-.55 0-1 .45-1 1s.45 1 1 1h2.22v6.17c0 .55.45 1 1 1s1-.45 1-1v-6.17h2.22c.55 0 1-.45 1-1 0-.56-.45-1-1-1ZM21.83 20.828h2.77c1.51 0 2.74 1.23 2.74 2.74 0 1.51-1.23 2.74-2.74 2.74h-1.77v2.69c0 .55-.45 1-1 1s-1-.45-1-1v-7.17c0-.55.45-1 1-1Zm1 3.48h1.77c.41 0 .74-.33.74-.74s-.33-.74-.74-.74h-1.77v1.48ZM13.44 26.858c0 1.73 1.41 3.14 3.15 3.14 1.73 0 3.15-1.41 3.15-3.14v-2.88c0-1.73-1.41-3.14-3.15-3.14s-3.15 1.41-3.15 3.14v2.88Zm2-2.88a1.15 1.15 0 0 1 2.3 0v2.88c0 .64-.52 1.15-1.15 1.15-.63 0-1.15-.52-1.15-1.15v-2.88Z"/></svg>
